X:54
T:Father Fielding's Favorite
S:Trad, arr. Paddy O'Brien
R:jig
E:12
I:speed 350
M:6/8
K:G
E/2D/2|~G2A BcA|BGF GBc|dBG FAG|FDD DEF|\
~G2A BcA|BAG fed|cAG FGA|BGF G2:|\
B/2d/2|gfg afd|cBc dBG|~g2b afd|cBc def|\
geg fdf|ece gfe|ded cBA|BGE G2:|**

\vfill\eject



